!!!SOCIAL_FUNCTION:	bird dance songs
!!!PDT:	1932
!!!OTL: No_113_Bird_Dance_Song_(b).krn
!!!REG: Southwest
!!!LANG: Non-Tone
!!!LING_GROUP: Yuman-Cochimi
**kern
*staff1
=1-
*clefF4
*k[b-e-a-d-]
*M2/4
12A-\L
12A-\
12A-\J
8.A-\L
16F\Jk
=2||
*M3/4
12A-\L
12A-\
12A-\J
8A-\
8r
4A-\
=3
8.B-\L
16B-\Jk
8B-\
8r
4A-\
=4
8.A-\L
16c\Jk
4A-\
4r
=5||
*M2/4
12A-\L
12A-\
12A-\J
8A-\
8r
=6
12A-\L
12A-\
12A-\J
8A-\
8r
=7
12A-\L
12A-\
12A-\J
8A-\
16r
16F\
=8||
*M3/4
12A-\L
12A-\
12A-\J
8A-\
8r
4A-\
=9
8.B-\L
16B-\Jk
8B-\
8r
4A-\
=10||
*M2/4
8.B-\L
16c\Jk
8A-\
16r
16F\
=11
12A-\L
12A-\
12A-\J
8A-\
8r
=12
12A-\L
12A-\
12A-\J
8.A-\L
16F\Jk
=13||
*M3/4
12A-\L
12A-\
12A-\J
8A-\
8r
4A-\
=14
8.e-\L
16e-\Jk
4e-\
8.c\L
16B-\Jk
=15
8.c\L
16A-\Jk
4A-\
8.B-\L
16c\Jk
=16
*M2/4
8.c\L
16A-\Jk
8A-\L
8F\J
=17||
12A-\L
12A-\
12A-\J
8A-\
8r
=18
12A-\L
12A-\
12A-\J
8.A-\L
16F\Jk
=19||
*M3/4
12A-\L
12A-\
12A-\J
8A-\
8r
4A-\
=20
8.B-\L
16B-\Jk
8B-\
8r
4A-\
=21
8.B-\L
16c\Jk
4.A-\
8F\
=22||
*M2/4
12A-\L
12A-\
12A-\J
8A-\
8r
=23
12A-\L
12A-\
12A-\J
8A-\
16r
16F\
=24
12A-\L
12A-\
12A-\J
4A-\
==:|!
*-
